X:1
T:James Gibb editions
T:How sweet the answer - Parry
T:#
%%score [ 1 2 3 4 ]
L:1/8
Q:1/4=100
M:4/4
K:F
V:1 treble nm="Soprano" snm="S"
V:2 treble nm="Alto" snm="A"
V:3 treble-8 nm="Tenor" snm="T"
V:4 bass nm="Bass" snm="B"
V:1
"^allegretto""^How sweet the answer""^C. H. H. Parry\n(1848-1918)""^Thomas Moore\n(1779-1852)"!pp! c2 | %1
w: How|
 d2 c2 d2 A2 | B2 d2 G3"^dolce" c |!<(! (def!<)!!>(!e dc)!>)!AG |[M:4/4] F6 F2 | %5
w: sweet the an- swer|e- cho makes To|mu\- * * * * * sic at|night When,|
"^cresc.""^poco" (cd) (cA) c3 c | (cdc)!<(!A d3 e!<)! |!p! (fed)A (F A2)"^dim." d | (fed)A F3 A | %9
w: rous'd * by * lute or|horn, * * she wakes, And|far * * a- way * o'er|lawns * * and lakes Goes|
!<(! (GAGA =Bc)!<)!!>(!ed!>)! | c6"^dim." G2 |!>(!!<(! (c2!>)!!<)! A2!>(!!<(! c2!>)!!<)! A2 | %12
w: an\- * * * * * swer- ing|light, goes|an\- * * *|
!<(!!>(! c2!<)!!>)! A3) B G2 | F8- | F4 z2!p! c2 ||[K:Ab] (cB) (Bc) (dcB)F | %16
w: * * swer- ing|light!|* Yet|love * hath * e\- * * choes|
!<(! A2 G2!<)! e2 (cB) | A4 F4 | A6 B2 |"^poco""^cresc." (cdc)A c3 c | (cdc)A c3!<(! A | %21
w: tru- er far And *|far more|sweet Than|e'er, * * be- neath the|moon\- * * light's star, Of|
 f3!<)!!>(! d f3!>)! e |!p! (edc)B d2 (cB) | (ABAF A2) (GF) | (=EF G4)!mf! c2 || %25
w: horn or lute or|soft * * gui- tar The *|songs * * * * re\- *|peat. * * 'Tis|
[K:F]!<(! d2 c2!<)!!>(! f2 A2 | A3!>)! G d2 F2 |!<(! (E2 F2 B2)!<)! (AG) | A6 A2 | %29
w: when the sigh, in|youth sin- cere And|on\- * * ly *|then, The|
!<(! A2 (=Bc)!<)!!>(! e3 d!>)! | !>!c3"^cresc." =B A2 c2 | %31
w: sigh that's * breath'd for|one to hear Is|
"^poco allargando"[Q:1/4=90]!<(! d2 e2!<)! g3 f |!>(! e3 =B c4!>)! | %33
w: by that one, that|on- ly Dear|
[Q:1/4=90]!p![Q:1/4=90][Q:1/4=90][Q:1/4=90] d4 !courtesy!_B3 G | A6 z2 |"^dim." !>!d4 A2 z2 | %36
w: Breath'd back a-|gain,|breath'd back,|
!pp! (!>!d2"^rit."[Q:1/4=87] c2)[Q:1/4=81] B3[Q:1/4=77] G |[Q:1/4=76] !fermata!F8 |] %38
w: breath'd * back a-|gain.|
V:2
!pp! (FE) | (DE) (FE) (DE) (FE) | (FG) (AF) (GF) (EG) | F2 F4 E2 |[M:4/4] (F2 ED CD) (CB,) | %5
w: How *|sweet * the * an\- * swer *|e\- * cho * makes * To *|mu- sic at|night * * * * When, *|
"^cresc." A,2 F2 (GAG)E | F2!<(! A2 (ABA)G!<)! |!p! (FGF)E D2"^dim." F2 | (A GF)E D3 F | %9
w: rous'd by lute * * or|horn, she wakes, * * And|far * * a- way o'er|lawns * * and lakes Goes|
 (FEFE D>)G G2 | (GAGF EFED) | (CDED CDED | CD E3) E E2 | (F2 ED EDB,D | CB, C2) z2!p! F2 || %15
w: an\- * * * * swer- ing|light, * * * * * * *|an\- * * * * * * *|* * * swer- ing|light! * * * * * *|* * * Yet|
[K:Ab] F2 F2 B2 F2 |!<(! F2 E2!<)! E2 (AG) | F4 F4 | (D2 EF EF) (ED) | %19
w: love hath e- choes|tru- er far And *|far more|sweet * * * * Than *|
"^poco""^cresc." C2 E2 =E3 E | F2 F2 (_GAG)!<(!!courtesy!_E | F2!<)!!>(! A2 =A3!>)! A | %22
w: e'er, be- neath the|moon- light's star, * * Of|horn or lute or|
!p! B2 F2 B2 F2 | (FGFE D2) D2 | (C=D =E4)!mf! G2 ||[K:F]!<(! (BA) G2!<)!!>(! F2 F2 | %26
w: soft gui- tar The|songs * * * * re-|peat. * * 'Tis|when * the sigh, in|
 F3!>)! F F2 D2 |!<(! (C3 D E2)!<)! E2 | (F2 EF D2) ^C2 |!<(! D2 F2!<)!!>(! F2 F2!>)! | %30
w: youth sin- cere And|on\- * * ly|then, * * * The|sigh that's breath'd for|
 (!>!F2 E)"^cresc."D C2 A2 |!<(! A2 A2!<)! A2 A2 |!>(! ^G2 E2 (E2!>)! _E2) | %33
w: one * to hear Is|by that one, that|on- ly Dear *|
!p! D4 D3 !courtesy!=E | (F2 E2 D2 E2) | (!>!F2"^dim." E2) D2 z2 |!pp! (!>!F3"^rit." D) (FE) (DE) | %37
w: Breath'd back a-|gain, * * *|breath'd * back,|breath'd * back * a\- *|
 !fermata!F8 |] %38
w: gain.|
V:3
!pp! A2 | B2 A2 B2 c2 | (de) (fd) (ed) (cB) | (A2 d2) G2 (cB) | %4
w: How|sweet the an- swer|e\- * cho * makes * To *|mu\- * sic at *|
[M:4/4][K:treble-8]!<(!!<(! (AB c!<)!!<)!!>(!!>(!B AB)!>)!!>)! (AG) |"^cresc.""^poco" F2 A2 G2 c2 | %6
w: night * * * * * When, *|rous'd by lute or|
 A2!<(! F2 (A2 =B)!<)!^c |!p! d3 e (fed)"^dim."A | (FAd)e (f e2) A | (dcdc =B>)A B2 | %10
w: horn, she wakes, * And|far a- way * * o'er|lawns * * and lakes * Goes|an\- * * * * swer- ing|
 (c2 G2 c2)!pp! e2 | (f2 e2 f2 e2 | f2 ed c)d (cB) | (AB) c3 B G2 | (AG A2) z2!p! A2 || %15
w: light, * * goes|an\- * * *|* * * * swer- ing *|light, * an- swer- ing|light! * * Yet|
[K:Ab] (=AB) B2 (fe) (dc) |!<(! B3 B!<)! A2 e2 | (e2 d2) (c2 B2) | (B2 cd c2) G2 | %19
w: love * hath e\- * choes *|tru- er far And|far * more *|sweet * * * Than|
"^poco""^cresc." A3 c (BcB)G | A3 A A3!<(! c | d2!<)!!>(! f2 (f ed)!>)!c |!p! B2 d2 (fe) d2 | %23
w: e'er, be- neath * * the|moon- light's star, Of|horn or lute * * or|soft gui- tar * The|
 c3 c (c2 B)A | (G2 c4)!mf! e2 ||[K:F]!<(! f2 (ed)!<)!!>(! c2 ^c2 | d3!>)! d B2 B2 | %27
w: songs, the songs * re-|peat. * 'Tis|when the * sigh, in|youth sin- cere And|
!<(! (B2 A2 d2)!<)! (cB) | A6 G2 |!<(! F2 A2!<)!!>(! A2 A2!>)! | !>!A2 ^G2"^cresc." A2 e2 | %31
w: on\- * * ly *|then, The|sigh that's breath'd for|one to hear Is|
!<(!!<(! d2 ^c2!<)!!<)! e2 (d=c) |!>(! =B2 B2 A4!>)! |!p! A4 !courtesy!_B3 B | (A2 G2 F2 G2) | %35
w: by that one, that *|on- ly Dear|Breath'd back a-|gain, * * *|
 (!>!A2"^dim." G2) F2 z2 |!pp! (!>!A3"^rit." F) G2 B2 | !fermata!A8 |] %38
w: breath'd * back,|breath'd * back a-|gain.|
V:4
!pp! [F,,C,]2 | [F,,C,]6 [F,,C,]2 | [F,,C,]6 [F,,C,]2 | [F,,C,]4 [F,,C,]2 [F,,C,]2 | %4
w: How|sweet, how|sweet the|e- cho at|
[M:4/4] [F,,C,]6 [F,,C,]2 |"^cresc.""^poco" F,3 F, (E,F,E,)C, | F,3!<(! F, (F,G,F,)!<)!E, | %7
w: night When|rous'd by lute * * or|horn, she wakes, * * And|
!p! D,3 D, D,2"^dim." D,2 | C,3 C, C,2 C,2 | (=B,,!<(!C,B,,C, D,>)D,!<)! F,2 | %10
w: far a- way o'er|lawns and lakes Goes|an\- * * * * swer- ing|
"^dim." (E,F,E,D, C,D,) (C,!courtesy!_B,,) | (A,,B,,C,B,, A,,B,,C,B,, | A,,B,, C,3) C, C,2 | %13
w: light, * * * * * goes *|an\- * * * * * * *|* * * swer- ing|
 [F,,C,]8- | [F,,C,]4 z2!p! (F,_E,) ||[K:Ab] D,3 C, B,,2 D,2 |!<(! E,3 D,!<)! C,2 C,2 | F,4 D,4 | %18
w: light!|* Yet *|Love hath e- choes|tru- er far And|far more|
 A,,6 E,2 |"^poco""^cresc." A,3 A, G,3 G, | F,2 F,2 E,2!<(! E,2 | D,3!<)!!>(! D, C,3!>)! F, | %22
w: sweet Than|e'er, be- neath the|moon- light's star, Of|horn or lute or|
!p! B,,3 B,, G,,2 G,,2 | (A,,4 B,,3) B,, | C,6!mf! C2 ||[K:F]!<(! B,2 B,2!<)!!>(! A,2 A,,2 | %26
w: soft gui- tar The|songs * re-|peat. 'Tis|when the sigh, in|
 B,,3!>)! B,, G,,2 G,2 |!<(! C,6!<)! C,2 | (F,2 G,2 F,2) E,2 |!<(! D,2 C,2!<)!!>(! =B,,2 B,,2!>)! | %30
w: youth sin- cere And|on- ly|then, * * The|sigh that's breath'd for|
 !>!E,3 E,"^cresc." A,2 (A,^G,) |!<(! F,2 E,2!<)! D,2 =B,,2 |!>(! E,2 ^G,2 (A,2!>)! =G,2) | %33
w: one to hear Is *|by that one, that|on- ly Dear *|
!p! ^F,4 G,3 G, | D,6 z2 |"^dim." !>!=B,,4 B,,2 z2 |!pp! !>!C,4"^rit." C,3 C, | !fermata!F,,8 |] %38
w: Breath'd back a-|gain,|breath'd back,|breath'd back a-|gain.|

